X:1
T:Benedictus qui venit
T:Rodolpho di Lasso
T:Source : Biciniorum---Leipzig---J.Apelio---1612. Editor : André Vierendeels (24/04/15).
T:Notes : Original clefs : G2, C1 Editorial accidentals above the staff m 3 in 2.Vox : 2x"fa" eighths notetad as 2x sixteenths in original print
T:Benedictus qui venit
C:Rodolpho di Lasso
%%score [ 1 2 ]
L:1/8
Q:1/4=76
M:4/2
K:F
V:1 treble nm="1.Vox" snm="1.V"
V:2 treble nm="2.Vox" snm="2.V"
V:1
 z4 d6 d2 c4 | A2 f2 e4 d2 d2 c4 | A2 c2 c2 B2 A2 d4 c2 | d2 f2 f2 e2 d3 e f4 | %4
w: Be- ne- dic-|tus qui ve- nit, qui ve-|nit in no- mi- ne Do- mi-|ni, in no- mi- ne, _ _|
 z2 B2 B2 A2 c4 z2 f2 | f2 e2 defg a4 z2 d2 | d2 c2 A4 B4 A4 | G16 |] %8
w: in no- mi- ne, in|no- mi- ne, _ _ _ _ in|no- mi- ne Do- mi-|ni.|
V:2
 G6 ^F2 GABG AGFE |"^-natural" F2 D2 z2 A2 B4 A2 F2 | F2 E2 F2 G3 F FE/D/ E3 E | %3
w: Be- ne di- * * * * * * *|* ctus qui ve- tnit in|no- mi- ne Do- * * * * * mi-|
 D3 E FG A2 z2 B2 B2 A2 | G4 z2 F2 F2 E2 DEFG | A4 z2 d2 d2 c2 B2 B,C | DEFE FG A3 G G4 ^F2 | %7
w: ni, _ _ _ _ in no- mi-|ne, in no- mi- ne, _ _ _|_ in no- mi- ne Do- *|* * * * * * * * * mi-|
 G16 |] %8
w: ni.|

